X: 146129
Q: "Hornpipe."
M: C
L: 1/8
K: Bb
(3(FGA) |:\
vB>vfud>uB A>ec>A | B>cd>B F2B>A |\
[1 G>Bc>d e>dc>B | A>cf>=e g>f_e>c :|\
[2 G>gf>e d>cB>A | c2B2B2 :|\
uc>B |\
=e>fg>a b>ge>g | f>=ef>g f2_e2 |\
d>ed>c B>dg2 | c>dc>B A>cf2 |\
g>ba>g f>ed>c | B2d2B2 :|


